X:9
T:MacCrimmon's Lament
M:3/4
L:1/4
R:Air
K:D
E |\
"Em"B>B B/A/ | "Em"B2E | "Em"B>cB | "D"A<FE | "Em"B>B B/A/ | "Em"B2F | "D"A<F D | "Em"F<E E |\ 
"Em"B>B B/A/ | "Em"B2E | "C#m"e>dc | "Em"B<E F | "D"A>BA | "D"F2d | "D"A<DE | "Em"F<E ||
D |\
"D"A2 D | "G"B2 D | "D"A2 F | "D"E<D D | "D"D>E D | "D"d2 A | "G"d2 B | "D"B<A A |\ 
"D"A>B c | "D"d2 A | "G"B2 B | "D"A<F D | "G"G>F G | "D"A2 F | "A7"E2 F | "D"E<D || 
